X:1
T:Blue Skies
C: Irving Berlin
R:(Med.)
M:4/4
L:1/8
K:G
"Em"E4B4-|"B7/D#"B4AGA2|"G/D"B8-|"C#m7b5"B4AGA2|
"Gmaj7"B4"E7b9"D4-|"Am7"D4"D7"DE2G-|"G6"G8|"F#m7b5"x4"B7b9"x4||
"Em"E4B4-|"B7/D#"B4AGA2|"G/D"B8-|"C#m7b5"B4AGA2|
"Gmaj7"B4"E7b9"D4-|"Am7"D4"D7"DE2G-|"G6"G8|"Am7"x4"D7"x4||
"Gmaj7"GABcd4|"F7"_edc2"Gmaj7"d4|"F7"cBA2"Gmaj7"B4|"D7"AGF2"Gmaj7"G2-"B7#5"G2||
"Em"E4B4-|"B7/D#"B4AGA2|"G/D"B8-|"C#m7b5"B4AGA2|
"Gmaj7"B4"E7b9"D4-|"Am7"D4"D7"DE2G-|"G6"G8|"(F#m7b5"x4"B7b9)"x4|]